antibot/app/images/dist/why/why-icon2.svg

<svg width="28" height="27" viewBox="0 0 28 27" fill="none" xmlns="http://www.w3.org/2000/svg">
<path d="M3.99935 26.8346C5.83268 26.8346 7.33268 25.3346 7.33268 23.5013V11.8346C7.33268 10.0013 5.83268 8.5013 3.99935 8.5013C2.16602 8.5013 0.666016 10.0013 0.666016 11.8346V23.5013C0.666016 25.3346 2.16602 26.8346 3.99935 26.8346ZM20.666 18.5013V23.5013C20.666 25.3346 22.166 26.8346 23.9993 26.8346C25.8327 26.8346 27.3327 25.3346 27.3327 23.5013V18.5013C27.3327 16.668 25.8327 15.168 23.9993 15.168C22.166 15.168 20.666 16.668 20.666 18.5013ZM13.9993 26.8346C15.8327 26.8346 17.3327 25.3346 17.3327 23.5013V3.5013C17.3327 1.66797 15.8327 0.167969 13.9993 0.167969C12.166 0.167969 10.666 1.66797 10.666 3.5013V23.5013C10.666 25.3346 12.166 26.8346 13.9993 26.8346Z" fill="#29B74D"/>
</svg>

<svg width="28" height="27" fill="none" xmlns="http://www.w3.org/2000/svg"><path d="M4 26.835c1.833 0 3.333-1.5 3.333-3.334V11.835C7.333 10 5.833 8.5 3.999 8.5a3.343 3.343 0 0 0-3.333 3.334V23.5c0 1.834 1.5 3.334 3.333 3.334ZM20.665 18.5v5c0 1.834 1.5 3.334 3.333 3.334 1.834 0 3.334-1.5 3.334-3.334v-5c0-1.833-1.5-3.333-3.334-3.333a3.343 3.343 0 0 0-3.333 3.333Zm-6.667 8.334c1.834 0 3.334-1.5 3.334-3.334v-20c0-1.833-1.5-3.333-3.334-3.333A3.343 3.343 0 0 0 10.665 3.5v20c0 1.834 1.5 3.334 3.333 3.334Z" fill="#29B74D"/></svg>
